X: 33166
T: Printemps En Hiver
R: polka
M: 2/4
K: Gmajor
|:"G"B2 d2"D/F#"c2 BA|"G"G2 B2 D2 G2|"D"F2 A2 dcBA|"G"G2 B2 B2 A2|
B2 d2"D/F#"c2 BA|"G"G2 B2 D2 G2|"D"F2 A2 dcBA|"G"G2"D"B2"G" G2 z2:|
K:D
|:"D"A2 FA d2 cA|"A"c2 G2 G4|G2 EG c2 BA|"D"c2 F2 F4|
A2 FA d2 cd|"G"B2 GB d2 cd|"D" Adcd "A"AFGE|"D"F2"A" D2"D"D2 z2:|

